polaris-icons/icons/new-icons/FolderPlusMajor.svg

<svg width="20" height="20" viewBox="0 0 20 20" fill="none" xmlns="http://www.w3.org/2000/svg">
<path d="M5.75 5.5C5.05964 5.5 4.5 6.05964 4.5 6.75V13.25C4.5 13.9404 5.05964 14.5 5.75 14.5H11.25C11.6642 14.5 12 14.8358 12 15.25C12 15.6642 11.6642 16 11.25 16H5.75C4.23122 16 3 14.7688 3 13.25V6.75C3 5.23122 4.23122 4 5.75 4H7.26393C8.30556 4 9.25778 4.58851 9.72361 5.52016L9.89443 5.8618C9.93678 5.9465 10.0233 6 10.118 6H14.25C15.7688 6 17 7.23122 17 8.75V10.25C17 10.6642 16.6642 11 16.25 11C15.8358 11 15.5 10.6642 15.5 10.25V8.75C15.5 8.05964 14.9404 7.5 14.25 7.5H10.118C9.45518 7.5 8.84922 7.1255 8.55279 6.53262L8.38197 6.19098C8.17023 5.7675 7.7374 5.5 7.26393 5.5H5.75Z" fill="#4A4A4A"/>
<path d="M13 14.5C13 14.0858 13.3358 13.75 13.75 13.75H14.75V12.75C14.75 12.3358 15.0858 12 15.5 12C15.9142 12 16.25 12.3358 16.25 12.75V13.75H17.25C17.6642 13.75 18 14.0858 18 14.5C18 14.9142 17.6642 15.25 17.25 15.25H16.25V16.25C16.25 16.6642 15.9142 17 15.5 17C15.0858 17 14.75 16.6642 14.75 16.25V15.25H13.75C13.3358 15.25 13 14.9142 13 14.5Z" fill="#4A4A4A"/>
</svg>

<svg viewBox="0 0 20 20" xmlns="http://www.w3.org/2000/svg"><path d="M5.75 5.5c-.69 0-1.25.56-1.25 1.25v6.5c0 .69.56 1.25 1.25 1.25h5.5a.75.75 0 0 1 0 1.5h-5.5a2.75 2.75 0 0 1-2.75-2.75v-6.5a2.75 2.75 0 0 1 2.75-2.75h1.514a2.75 2.75 0 0 1 2.46 1.52l.17.342a.25.25 0 0 0 .224.138h4.132a2.75 2.75 0 0 1 2.75 2.75v1.5a.75.75 0 0 1-1.5 0v-1.5c0-.69-.56-1.25-1.25-1.25h-4.132a1.75 1.75 0 0 1-1.565-.967l-.171-.342a1.25 1.25 0 0 0-1.118-.691h-1.514Z" fill="#5C5F62"/><path d="M13 14.5a.75.75 0 0 1 .75-.75h1v-1a.75.75 0 0 1 1.5 0v1h1a.75.75 0 0 1 0 1.5h-1v1a.75.75 0 0 1-1.5 0v-1h-1a.75.75 0 0 1-.75-.75Z" fill="#5C5F62"/></svg>
